!!!!SEGMENT: pl-stab--24c_nowakiewicz-kazimierz--hej-bracia-czy-spicie.krn
!!!cenid: 18xx:3392
!!!COM: Nowakiewicz, Kazimierz
!!!COM-rismid: pe30020309
!!!CDT: <1800->1824
!!!CNT: Polish
!!!OTL: Hej bracia czy śpicie
!!!PDT: 1864
!!!AGN:
!!!SMS-siglum: PL-STAb
!!!SMS-shelfmark: 24c
!!!SMS-shelfwork: W
!!!SMS-variant:
!!!SMS-altvar:
!!!NIFC-rismid: 1001165270
!!!URL-scan: https://repozytorium.nifc.pl/islandora/object/pl-stab%3A3613/datastream/PDF/view
!!!ONB-nifc:
!!!OMD:
!!!key: G
**kern	**text
*I"Spiew oraz SKrzypce	*
*Ivox&Ivioln	*
*ICvox&ICstr	*
*clefG2	*
*k[f#]	*
*G:	*
*M2/4	*
=1	=1
8dd\	.
4dd\	.
8dd\	.
=2	=2
8cc#X\L	.
8dd\	.
8ee\	.
8dd\J	.
=3	=3
8cc#X\L	.
8dd\	.
8a\	.
8dd\J	.
=4	=4
8b/	.
4g/	.
8g/	.
=5	=5
8f#/L	.
16f#/L	.
16e/JJ	.
(16d/LL	.
16e/	.
16f#/	.
16d/JJ)	.
!!LO:LB:g=original
=6	=6
8g/L	.
16g/L	.
16f#/JJ	.
(16g/LL	.
16a/	.
16b/	.
16g/JJ)	.
=7	=7
8f#/L	.
16f#/L	.
16e/JJ	.
(16d/LL	.
16e/	.
16f#/	.
16d/JJ)	.
=8	=8
8g/	.
4g/	.
8ggw\	.
=9	=9
8ff#\L	.
16ff#\L	.
16ee\JJ	.
(16dd\LL	.
16ee\	.
16ff#\	.
16dd\JJ)	.
=10	=10
8gg\L	.
16gg\L	.
16ff#\JJ	.
(16gg\LL	.
16aa\	.
16bb\	.
16gg\JJ)	.
=11	=11
8ff#\L	.
16ff#\L	.
16ee\JJ	.
(16dd\LL	.
16ee\	.
16ff#\	.
16dd\JJ)	.
=12	=12
8gg\	.
4g/	.
8g/	.
!!LO:LB:g=original
=13||	=13||
8dd\	Hej
4dd\	Bra-
8dd\	-cia
=14	=14
8cc#X\L	czy
8dd\J	.
8ee\	spi-
8dd\	-cie
=15	=15
8cc#X\	czy
8dd\	wszys-
8a/	-cy
8dd\	ba-
=16	=16
8b/	-czy-
4g/	-cie
8r	.
=17	=17
8f#/	dzi-
8f#/	-wy
8d/	nie-
8f#/	-sły-
=18	=18
8g/	-cha-
4b/	-ne
8g/	.
=19	=19
8f#/	dzi-
8f#/	-wy
8d/	nie-
8f#/	-sły-
=20	=20
8g/	-cha-
4b/	.
8g/	-ne
!!LO:LB:g=original
=21	=21
8ff#\L	.
16ff#\L	.
16ee\JJ	.
16dd\LL	.
16ee\	.
16ff#\	.
16dd\JJ	.
=22	=22
8gg\L	.
16gg\L	.
16ff#\JJ	.
16gg\LL	.
16aa\	.
16bb\	.
16gg\JJ	.
=23	=23
8ff#\L	.
16ff#\L	.
16ee\JJ	.
16dd\LL	.
16ee\	.
16ff#\	.
16dd\JJ	.
=24	=24
8gg\	.
4gg\	.
8g/	.
=25||	=25||
8dd\	Oj
4dd\	trwo-
8dd\	-ga
=26	=26
8cc#X\L	dla
8dd\J	.
8ee\L	Bo-
8dd\J	-ga
=27	=27
8cc#X\	cóż
8dd\	.
8b\	się
8dd\	to
!!LO:LB:g=original
=28	=28
8b/	dzie-
4g/	-je
8r	.
=29	=29
8f#/	jas-
8f#/	-ność
8d/	w_no-
8f#/	-cy
=30	=30
8g/	choć
8a/	nie
8b/	dnie-
8g/	-je
=31	=31
8f#/	jas-
8f#/	-ność
8d/	w_no-
8f#/	-cy
=32	=32
8g/	choć
8g/	nie
8g/	dnie-
8g/	-je
=33||	=33||
!LO:TX:a:t=3	!
(16ff#\LL	.
16gg\	.
16aa\	.
16bb\JJ)	.
(16ccc\LL	.
16bb\	.
16ccc\	.
16aa\JJ)	.
=34	=34
16bb\LL	.
16dd\	.
16ddd\	.
16dd\JJ	.
*rep	*
16bb\LL	.
16dd\	.
16ddd\	.
16dd\JJ	.
*Xrep	*
!!LO:LB:g=original
=35	=35
!LO:TX:a:t=3	!
(16ff#\LL	.
16gg\	.
16aa\	.
16bb\JJ	.
16ccc\LL	.
16bb\	.
16ccc\	.
16aa\JJ)	.
=36	=36
16gg\LL	.
16dd\	.
16bb\	.
16dd\JJ	.
*rep	*
16gg\LL	.
16dd\	.
16bb\	.
16dd\JJ	.
*Xrep	*
=37	=37
!LO:TX:a:t=3	!
(16ff#\LL	.
16gg\	.
16aa\	.
16bb\JJ	.
16ccc\LL	.
16bb\	.
16ccc\	.
16aa\JJ)	.
=38	=38
(16gg\LL	.
16aa\	.
16bb\	.
16ccc\JJ	.
16ddd\LL	.
16bb\	.
16gg\	.
16dd\JJ)	.
=39	=39
(16ff#\LL	.
16gg\	.
16aa\	.
16bb\JJ	.
16ccc\LL	.
16bb\)	.
16ccc\	.
16aa\JJ	.
=40	=40
8gg\	.
8r	.
8g/L	.
(16a/L	.
16b/JJ)	.
!!LO:LB:g=original
=41||	=41||
8cc\	I
8cc\	my
8cc\	też
8cc\	pa-
=42	=42
8cc/L	-trze-
8g/J	.
4g/	-my
=43	=43
8dd\	ale
8dd\	się
8dd\	bo-
8dd\	.
=44	=44
8dd/L	-je-
8g/J	.
4g/	-my
=45	=45
4ee\	pa-
4cc\	-trząc
=46	=46
4.a/	na
8dd\	te
=47	=47
8g/	dzi-
8g/	-wy
4r	.
=48	=48
8eee\L	.
8eee\J	.
8ccc\L	.
8ccc\J	.
!!LO:LB:g=original
=49	=49
8aa\L	.
8aa\J	.
8ddd\L	.
8ddd\J	.
=50	=50
8gg\L	.
8gg\J	.
8g/	.
8g/	trwo-
=51	=51
4cc\	-ga
8r	.
8g/	trwo-
=52	=52
4dd\	-ga
8r	.
8g/	dla
=53	=53
4ee\	Bo-
4cc\	-ga
=54	=54
4a/	co
4dd\	się
=55	=55
*^	*
8g/	16ryy	dzie-
.	16gg/LL	.
8g/	16ff#/	-je
.	16ee/JJ	.
4rg	16dd/LL	.
.	16cc/	.
.	16b/	.
.	16a/JJ	.
=56	=56	=56
8rc	8g/	.
8g/L	4.ryy	od
8g/	.	stra-
8g/J	.	-chu
*v	*v	*
!!LO:LB:g=original
=57	=57
4cc\	ser-
8dd\	-ce
8dd\	truch-
=58	=58
8ee\	-le-
8cc\	-je
4r	.
=59	=59
8r	.
8cc\	aż
8cc\	ser-
8cc\	-ce
=60	=60
4a/	truch-
4fn/	-le-
=61	=61
4d/	-je
4g/	truch-
=62	=62
4c/	-leje
4r	.
=63	=63
8gg\L	.
16gg\L	.
16ff#X\JJ	.
8gg\L	.
16gg\L	.
16ff#X\JJ	.
=64	=64
8gg\L	.
16gg\L	.
16ff#X\JJ	.
8gg\L	.
8ccc\J	.
!!LO:LB:g=original
=65	=65
4gg\	.
4ee\	.
=66	=66
8cc\L	.
8dd\	.
8ee\	.
8ffn\J	.
=67	=67
8gg\L	.
16gg\L	.
16ff#X\JJ	.
8gg\L	.
16gg\L	.
16ff#\JJ	.
=68	=68
8gg\L	.
16gg\L	.
16ee\JJ	.
8ffn\L	.
8dd\J	.
=69	=69
4cc\	.
8ccc\	.
8r	.
=70||	=70||
8dd\	Oj
4dd\	nie-
8dd\	-bo
=71	=71
8cc#X\L	stwo-
8dd\	.
8ee\	-rzo-
8dd\J	-ne
!!LO:LB:g=original
=72	=72
8cc#X\L	wojs-
8dd\	-Ka
8a\	.
8dd\J	niez-
=73	=73
8b/	-li-
4g/	-czo-
8g/	-ne
=74||	=74||
8dd\	Oj
4dd\	nie-
8dd\	-bo
=75	=75
8cc#X\L	stwo-
8dd\J	.
8ee\L	-rzo-
8dd\J	-ne
=76	=76
8cc#X\L	wojs-
8dd\J	-Ka
8a\L	niez-
8dd\J	-li-
=77	=77
8b/	-czo-
4g/	-ne
8r	.
=78	=78
8a/L	A-
8a/J	.
8d/L	-niel-
8f#/J	-sKie
!!LO:LB:g=original
=79	=79
8g/	wi-
4b/	-dze-
8g/	-my,
=80	=80
8f#/	A-
8f#/	-niel-
8d/	-skie
8f#/	wi-
=81	=81
8g/	-dze-
4g/	-my
8r	.
=82	=82
8ff#\L	.
16ff#\L	.
16ee\JJ	.
(16dd\LL	.
16ee\	.
16ff#\	.
16dd\JJ)	.
=83	=83
!LO:TX:b:t=Zydy:color=grey	!
8gg\L	.
16gg\L	.
16ff#\JJ	.
16gg\LL	.
16aa\	.
16bb\	.
16gg\JJ	.
=84	=84
8ff#\L	.
16ff#\L	.
16ee\JJ	.
16dd\LL	.
16ee\	.
16ff#\	.
16dd\JJ	.
=85	=85
8gg\	.
4gg\	.
8g/	.
!!LO:PB:g=original
=86	=86
8dd\	Ej
4dd\	trwo-
8dd\	-ga
=87	=87
8cc#X\	dla
8dd\	.
8ee\	Bo-
8dd\	-ga
=88	=88
8cc#X\	co
8dd\	.
8a/	się
8dd\	tu
=89	=89
8b/	dzie-
4g/	-je
8r	.
=90	=90
8f#/	od
4a/	stra-
8d/	-chu
=91	=91
8g/L	ser-
8a/J	.
8b/L	-ce
8dd/J	.
=92	=92
8f#/	ser-
4a/	-ce
8d/	tru-
!!LO:LB:g=original
=93	=93
8a/L	-chle-
8g/J	.
8g/	-je
8r	.
=94	=94
8ff#\L	.
16ff#\L	.
16ee\JJ	.
(16dd\LL	.
16ee\	.
16ff#\	.
16dd\JJ)	.
=95	=95
8gg\L	.
16gg\L	.
16ff#\JJ	.
(16gg\LL	.
16aa\	.
16bb\	.
16gg\JJ)	.
=96	=96
(8ff#\L	.
16ff#\L	.
16ee\JJ)	.
16dd\LL	.
16ee\	.
16ff#\	.
16dd\JJ	.
=97	=97
8gg\	.
4gg\	.
16aa\LL	.
16bb\JJ	.
=98	=98
8dd\L	.
16ee\L	.
16ff#\JJ	.
8dd\L	.
16ee\L	.
16ff#\JJ	.
!!LO:LB:g=original
=99	=99
8gg\L	.
16aa\L	.
16bb\JJ	.
8gg\L	.
16aa\L	.
16bb\JJ	.
=100	=100
8gg\L	.
8bb\	.
8ddd\	.
8bb\J	.
=101	=101
8gg\L	.
16aa\L	.
16bb\JJ	.
8dd\L	.
16ee\L	.
16ff#\JJ	.
=102	=102
!LO:N:vis=4	!
8gg\	.
8dd\	Hej
4dd\	pa-
=103	=103
8cc#X\	-ste-
8dd\	-rze
8ee\	mi-
8dd\	-li
=104	=104
8cc#X\	dzi-
8dd\	-siaj
8a/	o
8dd/	tej
!!LO:LB:g=original
=105	=105
8b/	chwi-
4g/	-li
8r	.
=106	=106
8f#/	Chrys-
8f#/	-tus
8d/	się
8f#/	na-
=107	=107
8g/	-ro-
4b\	-dził
8r	.
=108	=108
8f#/	Chry-
8f#/	-stus
8d/	się
8f#/	na-
=109	=109
8g/	-ro-
4g/	-dził
8r	.
=110	=110
8dd\	Oj
4dd\	do
8dd\	Bet-
=111	=111
8cc#X\	-le-
8dd\	-em
8ee\	bież-
8dd\	-cie
!!LO:LB:g=original
=112	=112
8cc#X\	tam
8dd\	dzie-
8a/	-cię
8dd\	znaj-
=113	=113
8b/	-dzie-
4g/	-cie
8g/	tam
=114	=114
8f#/	dzie-
8f#/	-cie
8d/	.
8f#/	znaj-
=115	=115
8g/	-dzie-
4b\	-cie
8r	.
=116	=116
8f#/	tam
8f#/	dzie-
8d/	-cię
8f#/	znaj-
=117	=117
8g/	-dzie-
4g/	-cie
8r	.
!!LO:LB:g=original
=118||	=118||
(16ff#\LL	.
16ee\	.
16dd\	.
16ee\JJ)	.
(16ff#\LL	.
16gg\	.
16aa\	.
16ff#\JJ)	.
=119	=119
8gg\L	.
8gg\J	.
8bb\L	.
8gg\J	.
=120	=120
8ff#\L	.
8aa\	.
8ddd\	.
8ff#\J	.
=121	=121
4.gg\	.
8gg\	.
=122	=122
4.ff#\	.
8aa\	.
=123	=123
8.dd\L	.
16ccc\Jk	.
8.ff#\L	.
16bb\Jk	.
=124	=124
4.gg\	.
8bb\	.
!!LO:LB:g=original
=125	=125
8.gg\L	.
16bb\Jk	.
8.gg\L	.
16ddd\Jk	.
=126	=126
4.ff#\	.
8aa\	.
=127	=127
8.dd\L	.
16ddd\Jk	.
8.ff#\L	.
16aa\Jk	.
=128	=128
8gg\L	.
16ff#\L	.
16ee\JJ	.
16dd\LL	.
16cc\	.
16b\	.
16a\JJ	.
=129	=129
4g/	.
4dd\	.
=130	=130
4b\ 4dd 4gg	.
!LO:TX:b:t=Staniętki 18 Grudnia 1864. Wincenty Leszczyński\nProf M(...) i Kantor	!
4r	.
!!LO:PB:g=original
==	==
*-	*-
!!!system-decoration: [(s1)]
!!!AIN: 1 violn 1 vox
!!!ENC: Filip Voros
!!!END: 2021-11-16
!!!ENC: Marta Chmielewska
!!!END: 2021-11-30
